X:1
T:Wenn ich, o schopfer deine Machte
T:Wenn ich, o schopfer deine Machte
T:UT
T:Sohren
C:Sohren
L:1/8
M:4/4
K:Bb
V:1 bass nm="Trombone" snm="Tbn."
V:1
!f! F,4 G,2 A,2 | B,4 G,4 | G,2 =E,2 F,4 | F,4 E,2 E,2 | F,4 (B,4 | B,2) A,2 F,4 :| %6
!mf! G,4 F,2 G,2 | D,4 D,4 | C,2 C,2 B,,4 | F,4 =E,2 F,2 | D,2 =E,2 (F,4 | F,2) E,2 C,4 | %12
!f! F,4 A,2 B,2 | G,2 A,2 (B,4 | B,2) A,2 B,4 |] %15

